icons/burn.svg

<svg width="48" height="48" viewBox="0 0 48 48" fill="none" xmlns="http://www.w3.org/2000/svg">
<path d="M43.999 26.4989C43.999 25.6705 43.3274 24.9989 42.499 24.9989H26.999V22.9989L39.499 22.9989C40.3274 22.9989 40.999 22.3274 40.999 21.4989C40.999 20.6705 40.3274 19.9989 39.499 19.9989L23.9136 19.9989C22.0092 19.9989 21.1825 17.5894 22.6857 16.4202L26.7826 13.2337C27.5728 12.6191 27.5623 11.4214 26.7614 10.8207C26.2653 10.4486 25.5926 10.4157 25.0625 10.7376L13.6717 17.6282L12.5 15.9999L24.0243 9.02818C25.2528 8.28213 26.8116 8.35836 27.9614 9.22074C29.8173 10.6126 29.8416 13.3882 28.0105 14.8124L23.9136 17.9989L39.499 17.9989C41.432 17.9989 42.999 19.5659 42.999 21.4989C42.999 22.0372 42.8775 22.547 42.6605 23.0026C44.5185 23.0869 45.999 24.62 45.999 26.4989C45.999 28.3778 44.5185 29.9109 42.6605 29.9953C42.8775 30.4508 42.999 30.9607 42.999 31.4989C42.999 33.4319 41.432 34.9989 39.499 34.9989H36.6622C36.8782 35.4536 36.999 35.9621 36.999 36.4989C36.999 38.4319 35.432 39.9989 33.499 39.9989H13.8131L16.5 37.9999L33.499 37.9989C34.3274 37.9989 34.999 37.3274 34.999 36.4989C34.999 35.6705 34.3274 34.9989 33.499 34.9989H24.8814V32.9989H39.499C40.3274 32.9989 40.999 32.3274 40.999 31.4989C40.999 30.6705 40.3274 29.9989 39.499 29.9989H26.999V27.9989H42.499C43.3274 27.9989 43.999 27.3274 43.999 26.4989Z" fill="black"/>
<path fill-rule="evenodd" clip-rule="evenodd" d="M9.56666 16.9999C9.56666 17.8227 9.48631 18.6001 9.34183 19.3464C8.81354 22.0754 7.42785 24.3888 5.97806 26.9895C4.30135 29.9972 4.98402 32.7102 6.49472 35.2433C7.05639 36.185 7.73253 37.1019 8.44442 37.9999C8.44442 37.7944 8.44412 37.5971 8.44384 37.4072C8.44218 36.3177 8.4409 35.4751 8.49882 34.7652C8.666 32.7163 9.32637 31.7735 11.8944 29.1939C13.0657 31.2909 12.7726 33.4622 12.3416 35.6679C12.2988 35.8871 12.2546 36.1066 12.2104 36.3264C12.0984 36.8825 11.9861 37.4406 11.8944 37.9999C12.3631 37.7735 12.8269 37.5628 13.2818 37.3562C13.5534 37.2327 13.8219 37.1107 14.0864 36.9877C16.1803 36.0138 18.022 34.9758 19.1915 32.6498C20.5715 29.9053 19.9626 27.7365 19.0142 25.1129C18.6929 24.2241 18.3326 23.2831 17.9975 22.2499C17.5903 23.7499 16.8314 25.1135 16.3385 26.0681C15.3567 22.2663 12.557 19.4812 9.56666 16.9999Z" fill="black"/>
</svg>

<svg
  xmlns="http://www.w3.org/2000/svg"
  width="24"
  height="24"
  viewBox="0 0 24 24"
  fill="none"
  stroke="currentColor"
  stroke-width="2"
  stroke-linecap="round"
  stroke-linejoin="round"
>
  <path d="M43.999 26.499a1.5 1.5 0 0 0-1.5-1.5h-15.5v-2h12.5a1.5 1.5 0 1 0 0-3H23.914c-1.905 0-2.732-2.41-1.228-3.579l4.097-3.186a1.518 1.518 0 0 0-1.72-2.496l-11.391 6.89L12.5 16l11.524-6.972a3.518 3.518 0 0 1 3.986 5.784L23.915 18h15.585a3.5 3.5 0 0 1 3.161 5.004 3.5 3.5 0 0 1 0 6.992A3.5 3.5 0 0 1 39.5 35h-2.837a3.5 3.5 0 0 1-3.163 5H13.813l2.687-2h16.999a1.5 1.5 0 1 0 0-3h-8.618v-2H39.5a1.5 1.5 0 1 0 0-3h-12.5v-2h15.5a1.5 1.5 0 0 0 1.5-1.5" />
  <path
    fill-rule="evenodd"
    d="M9.567 17c0 .823-.08 1.6-.225 2.346-.528 2.73-1.914 5.043-3.364 7.643-1.677 3.008-.994 5.721.517 8.254.561.942 1.238 1.859 1.95 2.757l-.001-.593c-.002-1.09-.003-1.932.055-2.642.167-2.049.827-2.992 3.395-5.571 1.172 2.097.879 4.268.448 6.474q-.064.33-.132.658A47 47 0 0 0 11.894 38c.47-.227.933-.437 1.388-.644q.407-.184.804-.368c2.094-.974 3.936-2.012 5.106-4.338 1.38-2.745.77-4.913-.178-7.537-.321-.889-.681-1.83-1.017-2.863-.407 1.5-1.166 2.863-1.658 3.818-.982-3.802-3.782-6.587-6.772-9.068"
    clip-rule="evenodd"
  />
</svg>
